X:1
T:Title
%%score { 1 | 2 }
L:1/8
M:4/4
K:Eb
V:1 treble nm="Grand Piano"
V:2 treble 
V:1
 z4 z2[Q:1/4=100] ee | [Ec][Ec][D=B][Ec] [CA]2 [Ec][EA] | [FB][FA][FA][EG] F2 AA | %3
 EE[CEA][Ec] [Ae][Ec][DB][Dc] | [EB]6 [Ge][Ge] | [Ac][Ec][DB][Ec] [CA]2 [Ec][EA] | %6
 [FB][FA][FA][EG] F2 AA | EAce ecBc |[M:3/4] [CA]6 |[M:1/4] cc | %10
[M:4/4] [F_d][Fd][Fd][Fd] [Fd]2 (3[Fd][Fd][Fd] | [Ec][Ec][Ec][D=B] [Ec]2 cc | eeee [Ec]2 [Ec][Ec] | %13
 [Ec][DB][DB][Dc] [EB]2 [Ge][Ge] | [Ec][Ec][D=B][Ec] [CA]2 [Ec][EA] | [FB][FA][FA][EG] F2 AA | %16
[M:17/16] EEAc[Ae]-<[Ae][_Ge]3/2[F_d] |[M:4/4] c2 c2 B2 B2 |[M:3/4] [CA]6 |] %19
V:2
 z4 z2 [A,CA][A,CA] | [A,,A,][A,,A,][A,,F,][A,,E,] [A,,E,]2 [A,,A,][C,A,] | %2
 [_D,_D][D,D][D,D][D,A,] [D,A,D]2 [F,A,D][F,A,D] | %3
 [A,C][A,C]A,,[A,,A,] [C,A,][A,,A,][B,,F,][B,,A,] | [E,G,]6 [E,B,][E,B,] | %5
 [A,,A,][A,,A,][A,,F,][A,,E,] [A,,E,]2 [A,,A,][C,A,] | %6
 [_D,_D][D,D][D,D][D,A,] [D,A,D]2 [F,A,D][F,A,D] | %7
 [A,C][A,CE][A,E][A,CA] [A,CA][K:bass][A,E][E,G,_D][E,G,E] |[M:3/4] [A,,A,]6 |[M:1/4] [A,E][A,E] | %10
[M:4/4] [_D,A,][D,A,][D,A,][D,A,] [D,A,]2 (3[D,A,][D,A,][D,A,] | %11
 [A,,A,][A,,A,][A,,A,][A,,F,] [A,,E,]2[K:treble] [A,E][A,E] | %12
 [A,CA][A,CA][A,CA][A,CA][K:bass] [A,,A,]2 [A,,A,][A,,A,] | %13
 [B,,A,][B,,A,][B,,A,][B,,A,] [E,G,]2 [E,B,][E,B,] | %14
 [A,,A,][A,,A,][A,,F,][A,,E,] [A,,E,]2 [A,,A,][C,A,] | %15
 [_D,_D][D,D][D,D][D,A,] [D,A,D]2 [F,A,D][F,A,D] | %16
[M:17/16] [A,C][A,C][A,CE][A,E][C,A,]-<[C,A,][C,A,]3/2[_D,A,] | %17
[M:4/4] [E,A,E]2 [E,A,E]2 [E,G,_D]2 [E,G,D]2 |[M:3/4] [A,,A,]6 |] %19

